X: 749
T: Qingzhu bianqu lincanhui
L: 1/8
M: 2/4
K: G
d d e d [I:setbarnb 1]| 
d Ad2 | 
A G A B | 
F ED2 | 
G F E G | 
A BA2 | 
d2A d | 
G F A E | 
D4 |]

@@@ Tune index: 9623
